X:1
T:The Hell-Bound Train
M:6/8
L:1/8
K:C
 G| GGG G^FG| A2 G G2 G| A2 A BBB| d2 c c2 G/2G/2| G2 G G^FG| A2 G G2 G|\
 AAA BAB| d2 c c2||
